src/actions/24/draw-cuboid.svg

<svg xmlns="http://www.w3.org/2000/svg" viewBox="0 0 24 24">
  <defs id="defs3051">
    <style type="text/css" id="current-color-scheme">
      .ColorScheme-Text {
        color:#2e3440;
      }
      </style>
  </defs>
 <path 
     style="fill:currentColor;fill-opacity:1;stroke:none" 
     d="M 12 1.4121094 C 11.2585 1.8827094 11.993 1.4120906 11.21875 1.9003906 L 3 7.3691406 L 3 8.5878906 L 3 16.181641 L 3 16.587891 C 4.14882 17.339591 3.22209 16.732191 3.75 17.087891 L 11.09375 21.994141 C 11.9891 22.590341 11.10175 21.994091 12 22.587891 C 20.02331 17.263691 18.05377 18.574091 20.375 17.025391 C 21.00661 16.563791 20.49219 16.930441 21 16.556641 L 21 16.212891 L 21 16.181641 L 21 8.5878906 L 21 7.3691406 C 18.6762 5.8224406 20.66009 7.1425406 20.4375 6.9941406 L 12.78125 1.9003906 L 12.375 1.6503906 C 12.09224 1.4683906 13.59837 2.4412094 12 1.4121094 z M 11.5 2.9316406 L 11.5 10.681641 L 11.4375 10.775391 L 11.21875 10.900391 L 4 15.712891 L 4 7.9316406 L 11.5 2.9316406 z M 12.5 2.9316406 L 20 7.9316406 L 20 15.556641 L 12.5 10.556641 L 12.5 2.9316406 z M 12.125 11.525391 L 19.4375 16.400391 L 12 21.369141 L 4.65625 16.494141 L 11.78125 11.744141 L 12.125 11.525391 z "
     class="ColorScheme-Text"
     />
 <path 
     style="fill:currentColor;fill-opacity:0.2;stroke:none" 
     d="M 11.582031 2.875 C 11.569361 2.875 9.8326564 4.0222281 7.7226562 5.4238281 L 3.8867188 7.9726562 L 3.8867188 11.929688 C 3.8867188 14.107088 3.8980094 15.888672 3.9121094 15.888672 C 3.9261894 15.888672 5.6628944 14.740137 7.7714844 13.335938 L 11.605469 10.783203 L 11.605469 6.828125 C 11.605469 4.653325 11.594731 2.875 11.582031 2.875 z "
     class="ColorScheme-Text"
     />
 <path 
     style="fill:currentColor;fill-opacity:0.4;stroke:none" 
     d="M 12.089844 11.394531 C 11.975114 11.399231 4.4068719 16.505828 4.4511719 16.548828 C 4.4730919 16.569928 6.1727156 17.713391 8.2285156 19.087891 C 10.284316 20.462391 11.977986 21.580313 11.992188 21.570312 C 12.632198 21.155513 19.594563 16.444875 19.601562 16.421875 C 19.616592 16.372075 12.174144 11.394531 12.089844 11.394531 z "
     class="ColorScheme-Text"
     />
 <path 
     style="fill:currentColor;fill-opacity:0.6;stroke:none" 
     d="M 12.427734 2.8125 C 12.415134 2.8125 12.403577 4.563625 12.404297 6.703125 L 12.40625 10.591797 L 16.238281 13.15625 C 18.345391 14.56625 20.074078 15.722656 20.080078 15.722656 C 20.086478 15.724356 20.091797 13.969919 20.091797 11.824219 L 20.091797 7.9238281 L 16.271484 5.3671875 C 14.169979 3.9616875 12.440334 2.8125 12.427734 2.8125 z "
     class="ColorScheme-Text"
     />
</svg>

<svg viewBox="0 0 24 24" xmlns="http://www.w3.org/2000/svg">
 <defs>
  <style type="text/css">.ColorScheme-Text {
        color:#2e3440;
      }</style>
 </defs>
 <path class="ColorScheme-Text" d="m12 1.4121c-0.7415 0.4706-7e-3 -1.88e-5 -0.78125 0.48828l-8.2188 5.4688v1.2188 7.5938 0.40625c1.1488 0.7517 0.22209 0.1443 0.75 0.5l7.3438 4.9062c0.89535 0.5962 8e-3 -5e-5 0.90625 0.59375 8.0233-5.3242 6.0538-4.0138 8.375-5.5625 0.63161-0.4616 0.11719-0.09495 0.625-0.46875v-0.34375-0.03125-7.5938-1.2188c-2.3238-1.5467-0.33991-0.2266-0.5625-0.375l-7.6562-5.0938-0.40625-0.25c-0.28276-0.182 1.2234 0.79082-0.375-0.23828zm-0.5 1.5195v7.75l-0.0625 0.09375-0.21875 0.125-7.2188 4.8125v-7.7813l7.5-5zm1 0 7.5 5v7.625l-7.5-5v-7.625zm-0.375 8.5938 7.3125 4.875-7.4375 4.9688-7.3438-4.875 7.125-4.75 0.34375-0.21875z" fill="currentColor"/>
 <path class="ColorScheme-Text" d="m11.582 2.875c-0.01267 0-1.7494 1.1472-3.8594 2.5488l-3.8359 2.5488v3.957c0 2.1774 0.011291 3.959 0.025391 3.959 0.01408 0 1.7508-1.1485 3.8594-2.5527l3.834-2.5527v-3.9551c0-2.1748-0.010738-3.9531-0.023438-3.9531z" fill="currentColor" fill-opacity=".2"/>
 <path class="ColorScheme-Text" d="m12.09 11.395c-0.11473 0.0047-7.683 5.1113-7.6387 5.1543 0.02192 0.0211 1.7215 1.1646 3.7773 2.5391 2.0558 1.3745 3.7495 2.4924 3.7637 2.4824 0.64001-0.4148 7.6024-5.1254 7.6094-5.1484 0.01503-0.0498-7.4274-5.0273-7.5117-5.0273z" fill="currentColor" fill-opacity=".4"/>
 <path class="ColorScheme-Text" d="m12.428 2.8125c-0.0126 0-0.024157 1.7511-0.023437 3.8906l0.001953 3.8887 3.832 2.5645c2.1071 1.41 3.8358 2.5664 3.8418 2.5664 0.0064 0.0017 0.011719-1.7527 0.011719-3.8984v-3.9004l-3.8203-2.5566c-2.1015-1.4055-3.8312-2.5547-3.8438-2.5547z" fill="currentColor" fill-opacity=".6"/>
</svg>
